X: 40862
T: Tree Climber, The
R: reel
M: 4/4
K: Dmajor
|:A2 AFBA z A|B def2 eed|ed BE FAAF|BA z A ABde|z ddB df ed:|
zd a2 ~a2 ef|dB z B a3 b|f/e/d e f2 f a2|~a2 ee dBdB|Afed efdA|
~G2 a2 ~a2 ef|dB zB a3 b|f/e/d e f2 f a2|~a2 ee dBdB|Afed efdB||

